img/twitter.svg

<svg width="20" height="18" viewBox="0 0 20 18" fill="none" xmlns="http://www.w3.org/2000/svg">
<path d="M17.9297 4.92139C18.7109 4.33545 19.4141 3.63232 19.9609 2.81201C19.2578 3.12451 18.4375 3.35889 17.6172 3.43701C18.4766 2.9292 19.1016 2.14795 19.4141 1.17139C18.6328 1.64014 17.7344 1.9917 16.8359 2.18701C16.0547 1.3667 15 0.897949 13.8281 0.897949C11.5625 0.897949 9.72656 2.73389 9.72656 4.99951C9.72656 5.31201 9.76562 5.62451 9.84375 5.93701C6.44531 5.7417 3.39844 4.10107 1.36719 1.64014C1.01562 2.22607 0.820312 2.9292 0.820312 3.71045C0.820312 5.1167 1.52344 6.3667 2.65625 7.10889C1.99219 7.06982 1.32812 6.91357 0.78125 6.60107V6.64014C0.78125 8.63232 2.1875 10.2729 4.0625 10.6636C3.75 10.7417 3.35938 10.8198 3.00781 10.8198C2.73438 10.8198 2.5 10.7808 2.22656 10.7417C2.73438 12.3823 4.25781 13.5542 6.05469 13.5933C4.64844 14.687 2.89062 15.3511 0.976562 15.3511C0.625 15.3511 0.3125 15.312 0 15.2729C1.79688 16.4448 3.94531 17.1089 6.28906 17.1089C13.8281 17.1089 17.9297 10.8979 17.9297 5.46826C17.9297 5.27295 17.9297 5.1167 17.9297 4.92139Z" fill="white"/>
</svg>

<svg width="20" height="18" fill="none" xmlns="http://www.w3.org/2000/svg"><path d="M17.93 4.921c.78-.586 1.484-1.289 2.03-2.109a7.687 7.687 0 01-2.343.625 4.007 4.007 0 001.797-2.266 8.65 8.65 0 01-2.578 1.016 4.102 4.102 0 00-3.008-1.29A4.101 4.101 0 009.727 5c0 .312.039.625.117.937A11.9 11.9 0 011.367 1.64C1.016 2.226.82 2.93.82 3.71c0 1.407.703 2.657 1.836 3.399-.664-.04-1.328-.195-1.875-.508v.04a4.107 4.107 0 003.281 4.023c-.312.078-.703.156-1.054.156-.274 0-.508-.04-.781-.078.507 1.64 2.03 2.812 3.828 2.851a8.247 8.247 0 01-5.078 1.758c-.352 0-.664-.039-.977-.078 1.797 1.172 3.945 1.836 6.29 1.836 7.538 0 11.64-6.211 11.64-11.64V4.92z" fill="#fff"/></svg>
